Sources/FrostedUI/Resources/Icons.xcassets/cubeDisconnected24.imageset/cube-disconnected-24.svg

<svg width="24" height="24" viewBox="0 0 24 24" fill="none" xmlns="http://www.w3.org/2000/svg" data-fui-icon="true">
  <path
    fill-rule="evenodd"
    clip-rule="evenodd"
    d="M10.9836 2.78866C11.289 2.59995 11.641 2.5 12 2.5C12.359 2.5 12.711 2.59995 13.0164 2.78866L19.7658 6.95855C20.2222 7.24049 20.5 7.73867 20.5 8.2751V15.7249C20.5 16.2613 20.2222 16.7595 19.7658 17.0415L13.0164 21.2113C12.711 21.4 12.359 21.5 12 21.5C11.641 21.5 11.289 21.4 10.9836 21.2113L4.23416 17.0415C3.7778 16.7595 3.5 16.2613 3.5 15.7249V8.2751C3.5 7.73867 3.7778 7.24049 4.23416 6.95855L10.9836 2.78866ZM12 1C11.3625 1 10.7375 1.17748 10.1952 1.51256L3.44577 5.68245C2.54707 6.23768 2 7.21872 2 8.2751V15.7249C2 16.7813 2.54707 17.7623 3.44577 18.3176L10.1952 22.4874C10.7375 22.8225 11.3625 23 12 23C12.6375 23 13.2625 22.8225 13.8048 22.4874L20.5542 18.3176C21.4529 17.7623 22 16.7813 22 15.7249V8.2751C22 7.21872 21.4529 6.23768 20.5542 5.68245L13.8048 1.51256C13.2625 1.17748 12.6375 1 12 1ZM11.9967 10.9064L6.96975 8.18583C6.60546 7.98867 6.15033 8.12416 5.95318 8.48845C5.75603 8.85273 5.89152 9.30787 6.2558 9.50502L11.2429 12.204V18.1299C11.2429 18.5442 11.5787 18.8799 11.9929 18.8799C12.4071 18.8799 12.7429 18.5442 12.7429 18.1299V12.2082L17.7376 9.50502C18.1019 9.30787 18.2374 8.85273 18.0402 8.48845C17.8431 8.12416 17.3879 7.98867 17.0237 8.18583L11.9967 10.9064Z"
    fill="currentColor"
  />
</svg>

<svg xmlns="http://www.w3.org/2000/svg" width="24" height="24" fill="none" data-fui-icon="true" viewBox="0 0 24 24"><path fill="currentColor" fill-rule="evenodd" d="M10.984 2.789a1.93 1.93 0 0 1 2.032 0l6.75 4.17c.456.281.734.78.734 1.316v7.45c0 .536-.278 1.034-.734 1.316l-6.75 4.17a1.93 1.93 0 0 1-2.032 0l-6.75-4.17a1.55 1.55 0 0 1-.734-1.316v-7.45c0-.536.278-1.035.734-1.316zM12 1c-.637 0-1.262.177-1.805.513l-6.75 4.17A3.05 3.05 0 0 0 2 8.274v7.45c0 1.056.547 2.037 1.446 2.593l6.75 4.17a3.43 3.43 0 0 0 3.609 0l6.75-4.17A3.05 3.05 0 0 0 22 15.725v-7.45a3.05 3.05 0 0 0-1.446-2.593l-6.75-4.17A3.43 3.43 0 0 0 12 1m-.003 9.906L6.97 8.186a.75.75 0 1 0-.714 1.319l4.987 2.699v5.926a.75.75 0 1 0 1.5 0v-5.922l4.995-2.703a.75.75 0 1 0-.714-1.32z" clip-rule="evenodd"/></svg>
